front/src/Assets/image/payment/refund_top.svg

<svg width="41" height="41" viewBox="0 0 41 41" fill="none" xmlns="http://www.w3.org/2000/svg">
<path d="M13.6667 6.83325L14.3738 6.12615L13.6667 5.41904L12.9596 6.12615L13.6667 6.83325ZM33.4583 15.3749C33.4583 14.8226 33.0106 14.3749 32.4583 14.3749C31.9061 14.3749 31.4583 14.8226 31.4583 15.3749L33.4583 15.3749ZM22.9154 14.6678L14.3738 6.12615L12.9596 7.54036L21.5012 16.082L22.9154 14.6678ZM12.9596 6.12615L4.4179 14.6678L5.83212 16.082L14.3738 7.54036L12.9596 6.12615ZM12.6667 6.83325L12.6667 24.7707L14.6667 24.7707L14.6667 6.83325L12.6667 6.83325ZM33.4583 24.7707L33.4583 15.3749L31.4583 15.3749L31.4583 24.7707L33.4583 24.7707ZM23.0625 35.1666C28.804 35.1666 33.4583 30.5122 33.4583 24.7707L31.4583 24.7707C31.4583 29.4076 27.6994 33.1666 23.0625 33.1666L23.0625 35.1666ZM12.6667 24.7707C12.6667 30.5122 17.321 35.1666 23.0625 35.1666L23.0625 33.1666C18.4256 33.1666 14.6667 29.4076 14.6667 24.7707L12.6667 24.7707Z" fill="#83B78E"/>
</svg>

<svg xmlns="http://www.w3.org/2000/svg" fill="none" viewBox="0 0 41 41">
  <path fill="#83B78E" d="M13.667 6.833l.707-.707-.707-.707-.707.707.707.707zm19.791 8.542a1 1 0 10-2 0h2zm-10.543-.707l-8.541-8.542L12.96 7.54l8.541 8.542 1.414-1.414zM12.96 6.126l-8.542 8.542 1.414 1.414 8.542-8.542-1.414-1.414zm-.293.707v17.938h2V6.833h-2zm20.791 17.938v-9.396h-2v9.396h2zM23.063 35.167c5.741 0 10.395-4.655 10.395-10.396h-2a8.396 8.396 0 01-8.395 8.396v2zM12.666 24.77c0 5.741 4.654 10.396 10.396 10.396v-2a8.396 8.396 0 01-8.396-8.396h-2z"/>
</svg>
